lib/flags/s/MSR.svg

<svg xmlns="http://www.w3.org/2000/svg" fill="none" viewBox="0 0 16 12"><mask id="MSR_svg__a" width="16" height="12" x="0" y="0" mask-type="alpha" maskUnits="userSpaceOnUse"><path fill="#fff" d="M0 0H16V12H0z"/></mask><g mask="url(#MSR_svg__a)"><path fill="#2E42A5" fill-rule="evenodd" d="M0 0V12H16V0H0Z" clip-rule="evenodd"/><mask id="MSR_svg__b" width="16" height="12" x="0" y="0" mask-type="alpha" maskUnits="userSpaceOnUse"><path fill="#fff" fill-rule="evenodd" d="M0 0V12H16V0H0Z" clip-rule="evenodd"/></mask><g mask="url(#MSR_svg__b)"><mask id="MSR_svg__c" width="9" height="7" x="0" y="0" mask-type="alpha" maskUnits="userSpaceOnUse"><path fill="#fff" d="M0 0H9V7H0z"/></mask><g mask="url(#MSR_svg__c)"><path fill="#F7FCFF" d="M-1.00214 6.49993L0.978339 7.36853L9.04494 0.944391L10.0896 -0.346375L7.97176 -0.636686L4.68159 2.13166L2.03334 3.99688L-1.00214 6.49993Z"/><path fill="#F50100" d="M-0.731018 7.10849L0.277943 7.61255L9.71445 -0.466309H8.29775L-0.731018 7.10849Z"/><path fill="#F7FCFF" d="M10.0021 6.49993L8.02166 7.36853L-0.0449371 0.944391L-1.08959 -0.346375L1.02824 -0.636686L4.31841 2.13166L6.96666 3.99688L10.0021 6.49993Z"/><path fill="#F50100" d="M9.93457 6.93661L8.92561 7.44067L4.90745 3.9817L3.71615 3.59523L-1.1901 -0.342034H0.226597L5.13009 3.50178L6.43256 3.96519L9.93457 6.93661Z"/><mask id="MSR_svg__d" width="11" height="9" x="-1" y="-1" fill="#000" maskUnits="userSpaceOnUse"><path fill="#fff" d="M-1-1H10V8H-1z"/><path fill-rule="evenodd" d="M4.99226 0H3.99226V3H0V4H3.99226V7H4.99226V4H9V3H4.99226V0Z" clip-rule="evenodd"/></mask><path fill="#F50100" fill-rule="evenodd" d="M4.99226 0H3.99226V3H0V4H3.99226V7H4.99226V4H9V3H4.99226V0Z" clip-rule="evenodd"/><path fill="#F7FCFF" d="M3.99226 0V-0.75H3.24226V0H3.99226ZM4.99226 0H5.74226V-0.75H4.99226V0ZM3.99226 3V3.75H4.74226V3H3.99226ZM0 3V2.25H-0.75V3H0ZM0 4H-0.75V4.75H0V4ZM3.99226 4H4.74226V3.25H3.99226V4ZM3.99226 7H3.24226V7.75H3.99226V7ZM4.99226 7V7.75H5.74226V7H4.99226ZM4.99226 4V3.25H4.24226V4H4.99226ZM9 4V4.75H9.75V4H9ZM9 3H9.75V2.25H9V3ZM4.99226 3H4.24226V3.75H4.99226V3ZM3.99226 0.75H4.99226V-0.75H3.99226V0.75ZM4.74226 3V0H3.24226V3H4.74226ZM0 3.75H3.99226V2.25H0V3.75ZM0.75 4V3H-0.75V4H0.75ZM3.99226 3.25H0V4.75H3.99226V3.25ZM4.74226 7V4H3.24226V7H4.74226ZM4.99226 6.25H3.99226V7.75H4.99226V6.25ZM4.24226 4V7H5.74226V4H4.24226ZM9 3.25H4.99226V4.75H9V3.25ZM8.25 3V4H9.75V3H8.25ZM4.99226 3.75H9V2.25H4.99226V3.75ZM4.24226 0V3H5.74226V0H4.24226Z" mask="url(#MSR_svg__d)"/></g><path fill="#6DC2FF" stroke="#F7FCFF" stroke-width=".25" d="M12.4643 10.9567C11.817 10.9567 11.3621 10.807 11.037 10.5426C10.7111 10.2776 10.4996 9.88435 10.365 9.36588C10.2302 8.84651 10.1752 8.21218 10.1548 7.47746C10.1403 6.96096 10.143 6.40034 10.1459 5.79961C10.1469 5.58532 10.1479 5.36592 10.1482 5.1416H14.8356C14.9194 6.62057 14.9515 8.06795 14.6545 9.15335C14.5027 9.70814 14.2677 10.157 13.9197 10.4671C13.5741 10.7752 13.1054 10.9567 12.4643 10.9567Z"/><mask id="MSR_svg__e" width="6" height="7" x="10" y="5" mask-type="alpha" maskUnits="userSpaceOnUse"><path fill="#fff" stroke="#fff" stroke-width=".25" d="M12.4643 10.9567C11.817 10.9567 11.3621 10.807 11.037 10.5426C10.7111 10.2776 10.4996 9.88435 10.365 9.36588C10.2302 8.84651 10.1752 8.21218 10.1548 7.47746C10.1403 6.96096 10.143 6.40034 10.1459 5.79961C10.1469 5.58532 10.1479 5.36592 10.1482 5.1416H14.8356C14.9194 6.62057 14.9515 8.06795 14.6545 9.15335C14.5027 9.70814 14.2677 10.157 13.9197 10.4671C13.5741 10.7752 13.1054 10.9567 12.4643 10.9567Z"/></mask><g mask="url(#MSR_svg__e)"><path fill="#2EBED7" d="M9.966 5H15.001V9.056000000000001H9.966z"/><path fill="#A95601" d="M9.9 9.023H15.2V11.1H9.9z"/><path stroke="#FFC6B5" stroke-width=".5" d="M12.8729 6.76082C12.8729 6.76082 11.9394 6.97609 12.0296 6.76082C12.1199 6.54554 12.3613 5.76929 12.3613 5.76929"/><path fill="#FFC6B5" fill-rule="evenodd" d="M13.1536 6.9143C13.1536 6.9143 12.9833 6.8082 12.9833 6.61496C12.9833 6.42173 12.568 6.34943 12.8608 6.04752C13.1536 5.74561 13.28 5.87857 13.28 6.04752C13.28 6.21647 13.5154 6.61496 13.5154 6.61496L13.1536 6.9143Z" clip-rule="evenodd"/><path fill="#272727" fill-rule="evenodd" d="M12.6825 5.16492H12.2188V5.62654H11.2913V6.08816H12.2188V10.1109H12.6825V6.08816H13.61V5.62654H12.6825V5.16492Z" clip-rule="evenodd"/><path fill="#0C7C38" fill-rule="evenodd" d="M13.681 10.2467C13.681 10.2467 13.5123 9.45288 13.5123 8.90953C13.5123 8.36617 13.2296 7.97753 13.3104 7.69019C13.3912 7.40286 13.5857 7.08512 13.4885 6.88844C13.3912 6.69177 13.5834 6.596 13.3104 6.69177C13.0374 6.78753 12.9641 6.596 12.7005 6.69177C12.437 6.78753 12.4036 7.23964 12.4036 7.36862C12.4036 7.4976 12.5208 8.36719 12.5208 8.63836C12.5208 8.90953 12.4243 10.577 12.7005 10.577C12.9768 10.577 13.278 10.143 13.3832 10.143C13.4885 10.143 13.681 10.2467 13.681 10.2467Z" clip-rule="evenodd"/><path stroke="#FF9A06" stroke-width=".5" d="M12.0149 8.12195C11.8465 8.12195 12.0014 8.51967 11.5729 8.69405C11.1444 8.86844 11.0602 9.11401 11.1952 9.11401C11.3302 9.11401 12.3976 10.3333 12.3976 10.3333L12.6593 9.92189V8.62281C12.6593 8.62281 12.1833 8.12195 12.0149 8.12195Z" clip-rule="evenodd"/><path stroke="#979797" stroke-width=".5" d="M13.2716 10.1636C13.2716 10.1636 13.4716 10.5927 13.2716 10.5927"/><path stroke="#FFC6B5" stroke-width=".5" d="M13.2072 6.92676C13.2072 6.92676 13.1194 7.41621 12.9521 7.51868C12.7848 7.62114 12.0976 7.81952 12.0976 7.9889C12.0976 8.15828 12.0294 8.21884 12.0294 8.21884"/><path fill="#FF9A06" fill-rule="evenodd" d="M12.874 5.91638C12.874 5.91638 13.0421 6.11956 13.1363 6.45449C13.2304 6.78942 13.5032 6.90349 13.5032 6.74674C13.5032 6.58998 13.7048 5.91638 13.5032 5.91638C13.3016 5.91638 12.874 5.91638 12.874 5.91638Z" clip-rule="evenodd"/></g></g></g></svg>

<svg xmlns="http://www.w3.org/2000/svg" fill="none" viewBox="0 0 16 12"><mask id="MSR_svg__a" width="16" height="12" x="0" y="0" maskUnits="userSpaceOnUse"><path fill="#fff" d="M0 0h16v12H0z"/></mask><g mask="url(#MSR_svg__a)"><path fill="#2E42A5" fill-rule="evenodd" d="M0 0v12h16V0H0z" clip-rule="evenodd"/><mask id="MSR_svg__b" width="16" height="12" x="0" y="0" maskUnits="userSpaceOnUse"><path fill="#fff" fill-rule="evenodd" d="M0 0v12h16V0H0z" clip-rule="evenodd"/></mask><g mask="url(#MSR_svg__b)"><mask id="MSR_svg__c" width="9" height="7" x="0" y="0" maskUnits="userSpaceOnUse"><path fill="#fff" d="M0 0h9v7H0z"/></mask><g mask="url(#MSR_svg__c)"><path fill="#F7FCFF" d="M-1.002 6.5l1.98.869L9.045.944l1.045-1.29-2.118-.29-3.29 2.768-2.649 1.865L-1.002 6.5z"/><path fill="#F50100" d="M-.731 7.108l1.009.505 9.436-8.08H8.298L-.731 7.109z"/><path fill="#F7FCFF" d="M10.002 6.5l-1.98.869L-.045.944-1.09-.346l2.118-.29 3.29 2.768 2.649 1.865L10.002 6.5z"/><path fill="#F50100" d="M9.935 6.937l-1.01.504-4.018-3.46-1.19-.386L-1.19-.342H.227L5.13 3.502l1.303.463 3.502 2.972z"/><mask id="MSR_svg__d" width="11" height="9" x="-1" y="-1" fill="#000" maskUnits="userSpaceOnUse"><path fill="#fff" d="M-1-1h11v9H-1z"/><path fill-rule="evenodd" d="M4.992 0h-1v3H0v1h3.992v3h1V4H9V3H4.992V0z" clip-rule="evenodd"/></mask><path fill="#F50100" fill-rule="evenodd" d="M4.992 0h-1v3H0v1h3.992v3h1V4H9V3H4.992V0z" clip-rule="evenodd"/><path fill="#F7FCFF" d="M3.992 0v-.75h-.75V0h.75zm1 0h.75v-.75h-.75V0zm-1 3v.75h.75V3h-.75zM0 3v-.75h-.75V3H0zm0 1h-.75v.75H0V4zm3.992 0h.75v-.75h-.75V4zm0 3h-.75v.75h.75V7zm1 0v.75h.75V7h-.75zm0-3v-.75h-.75V4h.75zM9 4v.75h.75V4H9zm0-1h.75v-.75H9V3zM4.992 3h-.75v.75h.75V3zm-1-2.25h1v-1.5h-1v1.5zM4.742 3V0h-1.5v3h1.5zM0 3.75h3.992v-1.5H0v1.5zM.75 4V3h-1.5v1h1.5zm3.242-.75H0v1.5h3.992v-1.5zM4.742 7V4h-1.5v3h1.5zm.25-.75h-1v1.5h1v-1.5zM4.242 4v3h1.5V4h-1.5zM9 3.25H4.992v1.5H9v-1.5zM8.25 3v1h1.5V3h-1.5zm-3.258.75H9v-1.5H4.992v1.5zM4.242 0v3h1.5V0h-1.5z" mask="url(#MSR_svg__d)"/></g><path fill="#6DC2FF" stroke="#F7FCFF" stroke-width=".25" d="M12.464 10.957c-.647 0-1.102-.15-1.427-.414-.326-.265-.537-.659-.672-1.177-.135-.52-.19-1.154-.21-1.889a52.51 52.51 0 01-.01-1.677c.002-.215.003-.434.003-.658h4.688c.083 1.479.115 2.926-.181 4.011-.152.555-.387 1.004-.735 1.314-.346.308-.815.49-1.456.49z"/><mask id="MSR_svg__e" width="6" height="7" x="10" y="5" maskUnits="userSpaceOnUse"><path fill="#fff" stroke="#fff" stroke-width=".25" d="M12.464 10.957c-.647 0-1.102-.15-1.427-.414-.326-.265-.537-.659-.672-1.177-.135-.52-.19-1.154-.21-1.889a52.51 52.51 0 01-.01-1.677c.002-.215.003-.434.003-.658h4.688c.083 1.479.115 2.926-.181 4.011-.152.555-.387 1.004-.735 1.314-.346.308-.815.49-1.456.49z"/></mask><g mask="url(#MSR_svg__e)"><path fill="#2EBED7" d="M9.966 5h5.035v4.056H9.966z"/><path fill="#A95601" d="M9.9 9.023h5.3V11.1H9.9z"/><path stroke="#FFC6B5" stroke-width=".5" d="M12.873 6.76s-.934.216-.843 0c.09-.214.331-.99.331-.99"/><path fill="#FFC6B5" fill-rule="evenodd" d="M13.154 6.914s-.17-.106-.17-.299-.416-.266-.123-.567c.293-.302.419-.17.419 0 0 .168.235.567.235.567l-.361.3z" clip-rule="evenodd"/><path fill="#272727" fill-rule="evenodd" d="M12.682 5.165h-.463v.461h-.928v.462h.928v4.023h.463V6.088h.928v-.462h-.928v-.461z" clip-rule="evenodd"/><path fill="#0C7C38" fill-rule="evenodd" d="M13.681 10.247s-.169-.794-.169-1.338c0-.543-.282-.932-.202-1.219.081-.287.276-.605.178-.802-.097-.196.095-.292-.178-.196-.273.095-.346-.096-.61 0-.263.095-.296.548-.296.677s.117.998.117 1.27c0 .27-.097 1.938.18 1.938.276 0 .577-.434.682-.434.106 0 .298.104.298.104z" clip-rule="evenodd"/><path stroke="#FF9A06" stroke-width=".5" d="M12.015 8.122c-.168 0-.014.398-.442.572-.429.174-.513.42-.378.42s1.203 1.22 1.203 1.22l.261-.412v-1.3s-.476-.5-.644-.5z" clip-rule="evenodd"/><path stroke="#979797" stroke-width=".5" d="M13.272 10.164s.2.429 0 .429"/><path stroke="#FFC6B5" stroke-width=".5" d="M13.207 6.927s-.088.49-.255.592c-.167.102-.854.3-.854.47 0 .17-.069.23-.069.23"/><path fill="#FF9A06" fill-rule="evenodd" d="M12.874 5.916s.168.203.262.538.367.45.367.293c0-.157.202-.83 0-.83h-.629z" clip-rule="evenodd"/></g></g></g></svg>
